src/assets/outline/Stellar.svg

<?xml version="1.0" encoding="UTF-8"?>
<svg width="24" height="24" viewBox="0 0 24 24" xmlns="http://www.w3.org/2000/svg">
 <path d="m4.04 14.94c-0.33 0-0.62997-0.22-0.71997-0.55-0.21-0.78-0.32001-1.58-0.32001-2.39 0-4.96 4.04-9 9-9 1.69 0 3.33 0.47 4.75 1.36 0.35 0.22 0.46 0.68 0.24 1.03s-0.68 0.46-1.03 0.24c-1.19-0.74-2.56-1.13-3.96-1.13-4.14 0-7.5 3.36-7.5 7.5 0 0.68 0.09002 1.35 0.27002 1.99 0.11 0.4-0.13003 0.81-0.53003 0.92-0.06 0.02-0.13001 0.03-0.20001 0.03z"/>
 <path d="m12 21.001c-1.7 0-3.35-0.48-4.78-1.37-0.35-0.22-0.45999-0.68-0.23999-1.03s0.68003-0.46 1.03-0.24c1.19 0.75 2.57 1.14 3.98 1.14 4.14 0 7.5-3.36 7.5-7.5 0-0.73-0.11-1.46-0.31-2.15-0.12-0.4 0.11-0.81 0.5-0.93 0.4-0.12 0.81 0.11 0.93 0.5 0.25 0.83004 0.38 1.7 0.38 2.58 0.01 4.96-4.03 9-8.99 9z"/>
 <path d="m2.0001 16.75c-0.26 0-0.51997-0.14-0.65997-0.39-0.2-0.36-0.07001-0.82 0.29999-1.02l20-11c0.36-0.2 0.8199-0.07 1.0199 0.3 0.2 0.36 0.07 0.82-0.3 1.02l-20 11c-0.11 0.06-0.23999 0.09-0.35999 0.09z"/>
 <path d="m2.0001 20.25c-0.26 0-0.51997-0.14-0.65997-0.39-0.2-0.36-0.07001-0.82 0.29999-1.02l20-11c0.36-0.2 0.8199-0.07 1.0199 0.3 0.2 0.36 0.07 0.82-0.3 1.02l-20 11c-0.11 0.06-0.23999 0.09-0.35999 0.09z"/>
</svg>

<svg width="24" height="24" viewBox="0 0 24 24"  xmlns="http://www.w3.org/2000/svg">
<path d="M4.03998 14.94C3.70998 14.94 3.41001 14.72 3.32001 14.39C3.11001 13.61 3 12.81 3 12C3 7.04 7.04 3 12 3C13.69 3 15.33 3.47 16.75 4.36C17.1 4.58 17.21 5.04 16.99 5.39C16.77 5.74 16.31 5.85 15.96 5.63C14.77 4.89 13.4 4.5 12 4.5C7.86 4.5 4.5 7.86 4.5 12C4.5 12.68 4.59002 13.35 4.77002 13.99C4.88002 14.39 4.63999 14.8 4.23999 14.91C4.17999 14.93 4.10998 14.94 4.03998 14.94Z" />
<path d="M11.9998 21.0006C10.2998 21.0006 8.64979 20.5206 7.21979 19.6306C6.86979 19.4106 6.7598 18.9506 6.9798 18.6006C7.1998 18.2506 7.65983 18.1406 8.00983 18.3606C9.19983 19.1106 10.5798 19.5006 11.9898 19.5006C16.1298 19.5006 19.4898 16.1406 19.4898 12.0006C19.4898 11.2706 19.3798 10.5406 19.1798 9.85056C19.0598 9.45056 19.2898 9.04056 19.6798 8.92056C20.0798 8.80056 20.4898 9.03056 20.6098 9.42056C20.8598 10.2506 20.9898 11.1206 20.9898 12.0006C20.9998 16.9606 16.9598 21.0006 11.9998 21.0006Z" />
<path d="M2.00014 16.7497C1.74014 16.7497 1.48017 16.6097 1.34017 16.3597C1.14017 15.9997 1.27016 15.5397 1.64016 15.3397L21.6402 4.33968C22.0002 4.13968 22.4601 4.26968 22.6601 4.63968C22.8601 4.99968 22.7301 5.45968 22.3601 5.65968L2.36013 16.6597C2.25013 16.7197 2.12014 16.7497 2.00014 16.7497Z" />
<path d="M2.00014 20.2497C1.74014 20.2497 1.48017 20.1097 1.34017 19.8597C1.14017 19.4997 1.27016 19.0397 1.64016 18.8397L21.6402 7.83968C22.0002 7.63968 22.4601 7.76968 22.6601 8.13968C22.8601 8.49968 22.7301 8.95968 22.3601 9.15968L2.36013 20.1597C2.25013 20.2197 2.12014 20.2497 2.00014 20.2497Z" />
</svg>
